epam-assets/icon-sources/18/editor-stats.svg

<svg xmlns="http://www.w3.org/2000/svg" width="18" height="18" fill="none" viewBox="0 0 18 18">
  <path fill="#6C6F80" fill-rule="evenodd" d="M7.5 15h3V3h-3v12ZM3 15h3V9H3v6Zm9-8.25V15h3V6.75h-3Z" clip-rule="evenodd"/>
</svg>

<svg width="18" height="18" viewBox="0 0 18 18" fill="none" xmlns="http://www.w3.org/2000/svg">
<g id="18/editor-stats">
<path id="icon" fill-rule="evenodd" clip-rule="evenodd" d="M7.5 15H10.5V3H7.5V15ZM3 15H6V9H3V15ZM12 6.75V15H15V6.75H12Z" fill="#6C6F80"/>
</g>
</svg>
